public/images/logo_text.svg

<?xml version="1.0" encoding="UTF-8" standalone="no"?>
<svg
   xmlns:dc="http://purl.org/dc/elements/1.1/"
   xmlns:cc="http://creativecommons.org/ns#"
   xmlns:rdf="http://www.w3.org/1999/02/22-rdf-syntax-ns#"
   xmlns:svg="http://www.w3.org/2000/svg"
   xmlns="http://www.w3.org/2000/svg"
   xmlns:sodipodi="http://sodipodi.sourceforge.net/DTD/sodipodi-0.dtd"
   xmlns:inkscape="http://www.inkscape.org/namespaces/inkscape"
   width="279.29239"
   height="93.5"
   viewBox="0 0 279.29239 93.5"
   fill="none"
   version="1.1"
   id="svg72"
   sodipodi:docname="globTextLogo.svg"
   inkscape:version="1.0.2 (e86c8708, 2021-01-15)">
  <metadata
     id="metadata76">
    <rdf:RDF>
      <cc:Work
         rdf:about="">
        <dc:format>image/svg+xml</dc:format>
        <dc:type
           rdf:resource="http://purl.org/dc/dcmitype/StillImage" />
        <dc:title></dc:title>
      </cc:Work>
    </rdf:RDF>
  </metadata>
  <sodipodi:namedview
     pagecolor="#ffffff"
     bordercolor="#666666"
     borderopacity="1"
     objecttolerance="10"
     gridtolerance="10"
     guidetolerance="10"
     inkscape:pageopacity="0"
     inkscape:pageshadow="2"
     inkscape:window-width="1280"
     inkscape:window-height="672"
     id="namedview74"
     showgrid="false"
     inkscape:zoom="1.5382752"
     inkscape:cx="93.140641"
     inkscape:cy="21.087687"
     inkscape:window-x="0"
     inkscape:window-y="26"
     inkscape:window-maximized="0"
     inkscape:current-layer="g24"
     inkscape:document-rotation="0" />
  <g
     filter="url(#filter0_b)"
     id="g24"
     transform="translate(-63.5356,-22)">
    <path
       id="path10"
       style="fill:url(#paint0_linear)"
       transform="translate(63.5356,22)"
       d="m 71.601562,0 c -0.866999,0 -1.399609,0.10078125 -1.599609,0.30078125 -0.267,0.2667 -0.434,1.13290935 -0.5,2.59960935 -0.4,7.1333004 -0.799219,13.3988284 -1.199219,18.7988284 -0.334,5.4 -0.667,10.101562 -1,14.101562 -0.267,4 -0.534781,7.399219 -0.800781,10.199219 -0.267,2.8 -0.499219,5.166309 -0.699219,7.099609 -0.134,1.8667 -0.26739,3.39961 -0.40039,4.59961 -0.067,1.2 -0.09961,2.2 -0.09961,3 0,5.0667 0.899219,8.70039 2.699219,10.90039 1.8,2.2 4.766391,3.300782 8.900391,3.300782 2.333,0 4.232219,-0.3333 5.699218,-1 1.533001,-0.7333 2.734563,-1.667482 3.601563,-2.800782 0.866,-1.2 1.464828,-2.50039 1.798828,-3.90039 0.333,-1.4667 0.5,-2.931738 0.5,-4.398438 0,-0.3333 -0.334,-0.534862 -1,-0.601562 -0.6,-0.1333 -1.267,-0.33291 -2,-0.59961 -0.734,-0.3333 -1.433609,-0.866309 -2.099609,-1.599609 -0.6,-0.7333 -0.900391,-1.965919 -0.900391,-3.699219 0,-1.2667 0.06717,-3.134862 0.201172,-5.601562 0.2,-2.4667 0.432219,-5.232128 0.699219,-8.298828 0.266,-3.1333 0.533781,-6.400782 0.800781,-9.800782 0.266,-3.4 0.531828,-6.665528 0.798828,-9.798828 0.266,-3.1333 0.46561,-5.93369 0.599609,-8.40039 0.200002,-2.5333 0.300782,-4.4674816 0.300782,-5.8007816 0,-1.1333 -0.167,-2.1992188 -0.5,-3.1992188 -0.334,-1.0667 -0.899219,-2.0007812 -1.699219,-2.8007812 -0.8,-0.8 -1.868172,-1.4336907 -3.201172,-1.90039065 -1.334,-0.4667 -3,-0.69921875 -5,-0.69921875 z M 180.87109,0 c -1,0 -1.59882,0.13369063 -1.79882,0.40039062 -0.2,0.20000001 -0.30079,1.03329998 -0.30079,2.49999998 0,1 -0.10078,2.8003907 -0.30078,5.4003906 -0.134,2.5999998 -0.33361,5.5999998 -0.59961,8.9999998 -0.267,3.3333 -0.53282,6.899219 -0.79882,10.699219 -0.267,3.7333 -0.53479,7.266309 -0.80079,10.599609 -0.267,3.3333 -0.49921,6.267482 -0.69921,8.800782 -0.134,2.5333 -0.20118,4.232909 -0.20118,5.099609 0,2.2 0.19961,4.634081 0.59961,7.300781 0.4,2.6 1.36639,5.032128 2.90039,7.298828 1.533,2.2667 3.80079,4.167872 6.80079,5.701172 2.99998,1.4667 7.06521,2.199219 12.19921,2.199219 4.2,0 7.83339,-0.532909 10.90039,-1.599609 3.133,-1.0667 5.8,-2.467872 8,-4.201172 2.2,-1.7333 3.96679,-3.7333 5.30079,-6 1.4,-2.3333 2.46521,-4.69961 3.19921,-7.09961 0.8,-2.4667 1.33261,-4.93369 1.59961,-7.40039 0.333,-2.4667 0.5,-4.732128 0.5,-6.798828 C 227.37109,33.967091 225.7367,28 222.4707,24 c -3.2,-4 -7.83243,-6 -13.89843,-6 -3.6,0 -6.50118,0.732519 -8.70118,2.199219 -2.2,1.4 -4.16739,3.601562 -5.90039,6.601562 0.333,-4.4 0.60078,-8.2333 0.80078,-11.5 0.266,-3.2667 0.4004,-5.4682623 0.4004,-6.6015622 0,-1.2000001 -0.16701,-2.2988282 -0.5,-3.2988282 -0.33402,-1.0667 -0.90118,-2.0007812 -1.70118,-2.8007812 -0.8,-0.8 -1.86622,-1.4336907 -3.19922,-1.90039065 -1.334,-0.4667 -3,-0.69921875 -5,-0.69921875 z M 23.699219,18 c -4.8,0 -8.732128,1 -11.798828,3 -3.0666008,1.9333 -5.5007816,4.400391 -7.3007816,7.400391 -1.7333,3 -2.9329094,6.30039 -3.5996094,9.90039 -0.6666,3.5333 -1,6.89961 -1,10.09961 0,3.9333 0.4341813,7.332518 1.3007812,10.199218 0.9334001,2.8 2.1988282,5.1333 3.7988282,7 1.6,1.8667 3.5341808,3.23291 5.8007816,4.09961 2.2667,0.8667 4.7667,1.300781 7.5,1.300781 3.6,0 6.6,-0.699609 9,-2.099609 2.4,-1.4667 4.433009,-3.701172 6.099609,-6.701172 0,6.0667 -0.899219,10.70039 -2.699219,13.90039 C 29.067481,79.366609 25.999609,81 21.599609,81 19.066309,81 17.2,80.667 16,80 c -1.2,-0.667 -2.134081,-1.433781 -2.800781,-2.300781 -0.6666,-0.8 -1.265428,-1.532519 -1.798828,-2.199219 -0.5333,-0.6667 -1.3666,-1 -2.5000004,-1 -0.9333,0 -1.9333,0.133691 -3,0.400391 -1,0.3333 -1.9340812,0.80039 -2.8007812,1.40039 -0.8666,0.6 -1.5662094,1.365528 -2.0996094,2.298828 -0.5333,0.933 -0.80078125,2.033782 -0.80078125,3.300782 0,1.4 0.43418125,2.799218 1.30078125,4.199218 0.9334,1.4 2.2667,2.634172 4,3.701172 1.7334,1.133 3.9,2.032219 6.5,2.699219 2.6667,0.667 5.767481,1 9.300781,1 4.6667,0 8.598828,-0.5 11.798828,-1.5 3.2667,-1 5.933,-2.333 8,-4 2.066,-1.667 3.666782,-3.566219 4.800782,-5.699219 1.133,-2.133 1.93339,-4.334862 2.40039,-6.601562 0.466,-2.2667 0.898828,-4.898438 1.298828,-7.898438 0.4,-3 0.767563,-6.13369 1.101563,-9.40039 0.333,-3.2667 0.631437,-6.501172 0.898437,-9.701172 0.266,-3.2667 0.467563,-6.231738 0.601563,-8.898438 0.2,-2.6667 0.331437,-4.934081 0.398437,-6.800781 0.066,-1.9333 0.101563,-3.165919 0.101563,-3.699219 0,-4 -0.800391,-6.701562 -2.400391,-8.101562 -1.534,-1.4667 -4.034,-2.199219 -7.5,-2.199219 h -4.599609 c -0.8,0 -1.234781,0.3333 -1.300781,1 0,0.2 -0.03361,0.667091 -0.09961,1.400391 0,0.6667 -0.03361,1.366309 -0.09961,2.099609 -0.067,0.7333 -0.135172,1.4 -0.201172,2 v 0.699219 C 36.166301,25.065919 35.6667,24 35,23 34.4,22 33.5667,21.133691 32.5,20.400391 31.5,19.667091 30.267481,19.099219 28.800781,18.699219 27.400781,18.232519 25.699219,18 23.699219,18 Z m 4.5,13.300781 c 2.4667,0 4.3,0.86631 5.5,2.59961 1.2667,1.6667 1.90039,4.5 1.90039,8.5 0,1.2667 -0.09883,2.7667 -0.298828,4.5 -0.2,1.7333 -0.66699,3.4 -1.40039,5 -0.7333,1.6 -1.801172,2.966309 -3.201172,4.099609 -1.3333,1.1333 -3.19961,1.699219 -5.59961,1.699219 -2.7333,0 -4.665428,-0.798438 -5.798828,-2.398438 -1.1333,-1.6667 -1.701172,-4.1667 -1.701172,-7.5 0,-1 0.100782,-2.401172 0.300782,-4.201172 0.2,-1.8667 0.632228,-3.7 1.298828,-5.5 0.7334,-1.8667 1.801172,-3.465528 3.201172,-4.798828 1.4,-1.3333 3.332228,-2 5.798828,-2 z m 174.171871,0 c 2.733,0 4.66678,1 5.80079,3 1.13299,1.9333 1.69921,4.7667 1.69921,8.5 0,1.2 -0.0988,2.8667 -0.29882,5 -0.2,2.1333 -0.6674,4.232128 -1.40039,6.298828 -0.66702,2.0667 -1.69961,3.867091 -3.09961,5.400391 -1.334,1.4667 -3.20157,2.199219 -5.60157,2.199219 -2.534,0 -4.43322,-0.965138 -5.69922,-2.898438 -1.267,-2 -1.90039,-5.30039 -1.90039,-9.90039 0,-1.5333 0.10078,-3.300782 0.30079,-5.300782 0.19999,-2.0667 0.66639,-3.998828 1.40039,-5.798828 0.733,-1.8 1.76559,-3.334862 3.09961,-4.601562 1.39999,-1.2667 3.29921,-1.898438 5.69921,-1.898438 z" />
    <path
       d="m 172.5,32.9999 c 7,-6.4999 26.7,-15.2 45.5,0 -7,14.5001 -38.5,-6.4999 -45.5,0 z"
       fill="url(#paint1_linear)"
       id="path12"
       style="fill:url(#paint1_linear)" />
    <path
       d="m 218,32.9999 c -7.5,-6.4999 -26.7,-15.2 -45.5,0 7,14.5001 38,-6.4999 45.5,0 z"
       fill="url(#paint2_linear)"
       id="path14"
       style="fill:url(#paint2_linear)" />
    <path
       d="m 230.5,63.9999 c -7,-12.4999 -63,-19.5 -70.5,-10.5 v 5 c 20,-11.0405 47,32.5 70.5,5.5 z"
       fill="url(#paint3_linear)"
       id="path16"
       style="fill:url(#paint3_linear)" />
    <path
       d="m 160,58.5 c 0,0 -0.5,-2.4999 0,-4.9999 35.5,22.4999 65,-36 70.5,-1.5 0.797,5 0,12 0,12 -8,-14 -40,17 -70.5,-5.5001 z"
       fill="url(#paint4_linear)"
       id="path18"
       style="fill:url(#paint4_linear)" />
    <path
       d="m 224.5,80.4999 c -9.5,12.0001 -34,28.0001 -58,0 25.5,14.0001 56.5,-12.4999 58,0 z"
       fill="url(#paint5_linear)"
       id="path20"
       style="fill:url(#paint5_linear)" />
    <path
       d="m 166.5,80.4999 c 28.2588,32.7334 54.74586,4.610678 58,0 C 199,94.5 168,68 166.5,80.4999 Z"
       fill="url(#paint6_linear)"
       id="path22"
       sodipodi:nodetypes="ccc"
       style="fill:url(#paint6_linear)" />
  </g>
  <defs
     id="defs70">
    <filter
       id="filter0_b"
       x="59.535599"
       y="18"
       width="287.29199"
       height="101.5"
       filterUnits="userSpaceOnUse"
       color-interpolation-filters="sRGB">
      <feFlood
         flood-opacity="0"
         result="BackgroundImageFix"
         id="feFlood26" />
      <feGaussianBlur
         in="BackgroundImage"
         stdDeviation="2"
         id="feGaussianBlur28" />
      <feComposite
         in2="SourceAlpha"
         operator="in"
         result="effect1_backgroundBlur"
         id="feComposite30" />
      <feBlend
         mode="normal"
         in="SourceGraphic"
         in2="effect1_backgroundBlur"
         result="shape"
         id="feBlend32" />
    </filter>
    <linearGradient
       id="paint0_linear"
       x1="35.5"
       y1="96"
       x2="324.65201"
       y2="179.041"
       gradientUnits="userSpaceOnUse"
       gradientTransform="translate(-63.5356,-22)">
      <stop
         stop-color="#FFE600"
         id="stop35" />
      <stop
         offset="1"
         stop-color="#FF0F91"
         id="stop37" />
    </linearGradient>
    <linearGradient
       id="paint1_linear"
       x1="176.42999"
       y1="36.269501"
       x2="208.877"
       y2="44.725498"
       gradientUnits="userSpaceOnUse">
      <stop
         stop-color="#FFE600"
         id="stop40" />
      <stop
         offset="1"
         stop-color="#BC2A79"
         id="stop42" />
    </linearGradient>
    <linearGradient
       id="paint2_linear"
       x1="167.5"
       y1="38"
       x2="250.37199"
       y2="16.402901"
       gradientUnits="userSpaceOnUse">
      <stop
         stop-color="#FFE600"
         id="stop45" />
      <stop
         offset="1"
         stop-color="#FF0F91"
         id="stop47" />
    </linearGradient>
    <linearGradient
       id="paint3_linear"
       x1="166.089"
       y1="69.617699"
       x2="216.98599"
       y2="81.540398"
       gradientUnits="userSpaceOnUse">
      <stop
         stop-color="#BBAD30"
         id="stop50" />
      <stop
         offset="1"
         stop-color="#BA2A78"
         id="stop52" />
    </linearGradient>
    <linearGradient
       id="paint4_linear"
       x1="165.91701"
       y1="63.244499"
       x2="261.61801"
       y2="83.851997"
       gradientUnits="userSpaceOnUse">
      <stop
         stop-color="#FFE600"
         id="stop55" />
      <stop
         offset="1"
         stop-color="#FF0F91"
         id="stop57" />
    </linearGradient>
    <linearGradient
       id="paint5_linear"
       x1="157.5"
       y1="91"
       x2="220.64101"
       y2="76.927696"
       gradientUnits="userSpaceOnUse">
      <stop
         stop-color="#FFE600"
         id="stop60" />
      <stop
         offset="1"
         stop-color="#C43B85"
         id="stop62" />
    </linearGradient>
    <linearGradient
       id="paint6_linear"
       x1="171.50999"
       y1="93.257797"
       x2="245.255"
       y2="104.696"
       gradientUnits="userSpaceOnUse">
      <stop
         stop-color="#FFE600"
         id="stop65" />
      <stop
         offset="1"
         stop-color="#FF0F91"
         id="stop67" />
    </linearGradient>
  </defs>
</svg>

<svg width="280" height="94" viewBox="0 0 280 94" fill="none" xmlns="http://www.w3.org/2000/svg">
<g clip-path="url(#clip0)">
<path d="M71.6016 0C70.7346 0 70.202 0.100781 70.002 0.300781C69.735 0.567481 69.568 1.43369 69.502 2.90039C69.102 10.0337 68.7027 16.2992 68.3027 21.6992C67.9687 27.0992 67.6357 31.8008 67.3027 35.8008C67.0357 39.8008 66.768 43.2 66.502 46C66.235 48.8 66.0027 51.1663 65.8027 53.0996C65.6687 54.9663 65.5353 56.4992 65.4023 57.6992C65.3353 58.8992 65.3027 59.8992 65.3027 60.6992C65.3027 65.7659 66.202 69.3996 68.002 71.5996C69.802 73.7996 72.7683 74.9004 76.9023 74.9004C79.2353 74.9004 81.1346 74.5671 82.6016 73.9004C84.1346 73.1671 85.3361 72.2329 86.2031 71.0996C87.0691 69.8996 87.668 68.5992 88.002 67.1992C88.335 65.7325 88.502 64.2675 88.502 62.8008C88.502 62.4675 88.168 62.2659 87.502 62.1992C86.902 62.0659 86.235 61.8663 85.502 61.5996C84.768 61.2663 84.0683 60.7333 83.4023 60C82.8023 59.2667 82.502 58.0341 82.502 56.3008C82.502 55.0341 82.5691 53.1659 82.7031 50.6992C82.9031 48.2325 83.1353 45.4671 83.4023 42.4004C83.6683 39.2671 83.9361 35.9996 84.2031 32.5996C84.4691 29.1996 84.735 25.9341 85.002 22.8008C85.268 19.6675 85.4676 16.8671 85.6016 14.4004C85.8016 11.8671 85.9023 9.93291 85.9023 8.59961C85.9023 7.46631 85.7353 6.40039 85.4023 5.40039C85.0683 4.33369 84.5031 3.39961 83.7031 2.59961C82.9031 1.79961 81.835 1.16592 80.502 0.699219C79.168 0.232519 77.502 0 75.502 0L71.6016 0ZM180.871 0C179.871 0 179.272 0.133691 179.072 0.400391C178.872 0.600391 178.771 1.43369 178.771 2.90039C178.771 3.90039 178.671 5.70078 178.471 8.30078C178.337 10.9008 178.137 13.9008 177.871 17.3008C177.604 20.6341 177.338 24.2 177.072 28C176.805 31.7333 176.537 35.2663 176.271 38.5996C176.004 41.9329 175.772 44.8671 175.572 47.4004C175.438 49.9337 175.371 51.6333 175.371 52.5C175.371 54.7 175.571 57.1341 175.971 59.8008C176.371 62.4008 177.337 64.8329 178.871 67.0996C180.404 69.3663 182.672 71.2675 185.672 72.8008C188.672 74.2675 192.737 75 197.871 75C202.071 75 205.704 74.4671 208.771 73.4004C211.904 72.3337 214.571 70.9325 216.771 69.1992C218.971 67.4659 220.738 65.4659 222.072 63.1992C223.472 60.8659 224.537 58.4996 225.271 56.0996C226.071 53.6329 226.604 51.1659 226.871 48.6992C227.204 46.2325 227.371 43.9671 227.371 41.9004C227.371 33.9671 225.737 28 222.471 24C219.271 20 214.638 18 208.572 18C204.972 18 202.071 18.7325 199.871 20.1992C197.671 21.5992 195.704 23.8008 193.971 26.8008C194.304 22.4008 194.571 18.5675 194.771 15.3008C195.037 12.0341 195.172 9.83252 195.172 8.69922C195.172 7.49922 195.005 6.40039 194.672 5.40039C194.338 4.33369 193.771 3.39961 192.971 2.59961C192.171 1.79961 191.104 1.16592 189.771 0.699219C188.437 0.232519 186.771 0 184.771 0L180.871 0ZM23.6992 18C18.8992 18 14.9671 19 11.9004 21C8.83379 22.9333 6.39961 25.4004 4.59961 28.4004C2.86631 31.4004 1.6667 34.7008 1 38.3008C0.3334 41.8341 0 45.2004 0 48.4004C0 52.3337 0.434181 55.7329 1.30078 58.5996C2.23418 61.3996 3.49961 63.7329 5.09961 65.5996C6.69961 67.4663 8.63379 68.8325 10.9004 69.6992C13.1671 70.5659 15.6671 71 18.4004 71C22.0004 71 25.0004 70.3004 27.4004 68.9004C29.8004 67.4337 31.8334 65.1992 33.5 62.1992C33.5 68.2659 32.6008 72.8996 30.8008 76.0996C29.0675 79.3666 25.9996 81 21.5996 81C19.0663 81 17.2 80.667 16 80C14.8 79.333 13.8659 78.5662 13.1992 77.6992C12.5326 76.8992 11.9338 76.1667 11.4004 75.5C10.8671 74.8333 10.0338 74.5 8.90039 74.5C7.96709 74.5 6.96709 74.6337 5.90039 74.9004C4.90039 75.2337 3.96631 75.7008 3.09961 76.3008C2.23301 76.9008 1.5334 77.6663 1 78.5996C0.4667 79.5326 0.199219 80.6334 0.199219 81.9004C0.199219 83.3004 0.6334 84.6996 1.5 86.0996C2.4334 87.4996 3.7667 88.7338 5.5 89.8008C7.2334 90.9338 9.4 91.833 12 92.5C14.6667 93.167 17.7675 93.5 21.3008 93.5C25.9675 93.5 29.8996 93 33.0996 92C36.3663 91 39.0326 89.667 41.0996 88C43.1656 86.333 44.7664 84.4338 45.9004 82.3008C47.0334 80.1678 47.8338 77.9659 48.3008 75.6992C48.7668 73.4325 49.1996 70.8008 49.5996 67.8008C49.9996 64.8008 50.3672 61.6671 50.7012 58.4004C51.0342 55.1337 51.3326 51.8992 51.5996 48.6992C51.8656 45.4325 52.0672 42.4675 52.2012 39.8008C52.4012 37.1341 52.5326 34.8667 52.5996 33C52.6656 31.0667 52.7012 29.8341 52.7012 29.3008C52.7012 25.3008 51.9008 22.5992 50.3008 21.1992C48.7668 19.7325 46.2668 19 42.8008 19H38.2012C37.4012 19 36.9664 19.3333 36.9004 20C36.9004 20.2 36.8668 20.6671 36.8008 21.4004C36.8008 22.0671 36.7672 22.7667 36.7012 23.5C36.6342 24.2333 36.566 24.9 36.5 25.5V26.1992C36.1663 25.0659 35.6667 24 35 23C34.4 22 33.5667 21.1337 32.5 20.4004C31.5 19.6671 30.2675 19.0992 28.8008 18.6992C27.4008 18.2325 25.6992 18 23.6992 18ZM28.1992 31.3008C30.6659 31.3008 32.4992 32.1671 33.6992 33.9004C34.9659 35.5671 35.5996 38.4004 35.5996 42.4004C35.5996 43.6671 35.5008 45.1671 35.3008 46.9004C35.1008 48.6337 34.6338 50.3004 33.9004 51.9004C33.1671 53.5004 32.0992 54.8667 30.6992 56C29.3659 57.1333 27.4996 57.6992 25.0996 57.6992C22.3663 57.6992 20.4342 56.9008 19.3008 55.3008C18.1675 53.6341 17.5996 51.1341 17.5996 47.8008C17.5996 46.8008 17.7004 45.3996 17.9004 43.5996C18.1004 41.7329 18.5326 39.8996 19.1992 38.0996C19.9326 36.2329 21.0004 34.6341 22.4004 33.3008C23.8004 31.9675 25.7326 31.3008 28.1992 31.3008V31.3008ZM202.371 31.3008C205.104 31.3008 207.038 32.3008 208.172 34.3008C209.305 36.2341 209.871 39.0675 209.871 42.8008C209.871 44.0008 209.772 45.6675 209.572 47.8008C209.372 49.9341 208.905 52.0329 208.172 54.0996C207.505 56.1663 206.472 57.9667 205.072 59.5C203.738 60.9667 201.871 61.6992 199.471 61.6992C196.937 61.6992 195.037 60.7341 193.771 58.8008C192.504 56.8008 191.871 53.5004 191.871 48.9004C191.871 47.3671 191.972 45.5996 192.172 43.5996C192.372 41.5329 192.838 39.6008 193.572 37.8008C194.305 36.0008 195.338 34.4659 196.672 33.1992C198.072 31.9325 199.971 31.3008 202.371 31.3008Z" fill="url(#paint0_linear)"/>
<path d="M108.964 10.9999C115.964 4.50001 135.664 -4.20009 154.464 10.9999C147.464 25.5 115.964 4.50001 108.964 10.9999Z" fill="url(#paint1_linear)"/>
<path d="M154.464 10.9999C146.964 4.50001 127.764 -4.20009 108.964 10.9999C115.964 25.5 146.964 4.50001 154.464 10.9999Z" fill="url(#paint2_linear)"/>
<path d="M166.964 41.9999C159.964 29.5 103.964 22.4999 96.4644 31.4999V36.4999C116.464 25.4594 143.464 68.9999 166.964 41.9999Z" fill="url(#paint3_linear)"/>
<path d="M96.4644 36.5C96.4644 36.5 95.9644 34.0001 96.4644 31.5001C131.964 54 161.464 -4.4999 166.964 30.0001C167.761 35.0001 166.964 42.0001 166.964 42.0001C158.964 28.0001 126.964 59.0001 96.4644 36.5Z" fill="url(#paint4_linear)"/>
<path d="M160.964 58.4999C151.464 70.5 126.964 86.5 102.964 58.4999C128.464 72.5 159.464 46 160.964 58.4999Z" fill="url(#paint5_linear)"/>
<path d="M102.964 58.4999C131.223 91.2333 157.71 63.1106 160.964 58.4999C135.464 72.5 104.464 46 102.964 58.4999Z" fill="url(#paint6_linear)"/>
</g>
<defs>
<linearGradient id="paint0_linear" x1="-28.0356" y1="74" x2="261.116" y2="157.041" gradientUnits="userSpaceOnUse">
<stop stop-color="#FFE600"/>
<stop offset="1" stop-color="#FF0F91"/>
</linearGradient>
<linearGradient id="paint1_linear" x1="112.894" y1="14.2695" x2="145.341" y2="22.7255" gradientUnits="userSpaceOnUse">
<stop stop-color="#FFE600"/>
<stop offset="1" stop-color="#BC2A79"/>
</linearGradient>
<linearGradient id="paint2_linear" x1="103.964" y1="16" x2="186.836" y2="-5.59709" gradientUnits="userSpaceOnUse">
<stop stop-color="#FFE600"/>
<stop offset="1" stop-color="#FF0F91"/>
</linearGradient>
<linearGradient id="paint3_linear" x1="102.553" y1="47.6177" x2="153.45" y2="59.5404" gradientUnits="userSpaceOnUse">
<stop stop-color="#BBAD30"/>
<stop offset="1" stop-color="#BA2A78"/>
</linearGradient>
<linearGradient id="paint4_linear" x1="102.381" y1="41.2445" x2="198.082" y2="61.852" gradientUnits="userSpaceOnUse">
<stop stop-color="#FFE600"/>
<stop offset="1" stop-color="#FF0F91"/>
</linearGradient>
<linearGradient id="paint5_linear" x1="93.9644" y1="69" x2="157.105" y2="54.9277" gradientUnits="userSpaceOnUse">
<stop stop-color="#FFE600"/>
<stop offset="1" stop-color="#C43B85"/>
</linearGradient>
<linearGradient id="paint6_linear" x1="107.974" y1="71.2578" x2="181.719" y2="82.696" gradientUnits="userSpaceOnUse">
<stop stop-color="#FFE600"/>
<stop offset="1" stop-color="#FF0F91"/>
</linearGradient>
<clipPath id="clip0">
<rect width="279.292" height="93.5" fill="white"/>
</clipPath>
</defs>
</svg>
